X:1
T:Dance of the Hoo-Hoo
T:E. Y. Suckert
T:Copyright 1898 by E. Y. Suckert
T:Copyright 1898 by E. Y. Suckert
T:Copyright 1898 by E. Y. Suckert
T:Copyright 1898 by E. Y. Suckert
Z:Copyright 1898 by E. Y. Suckert
%%score { 1 | ( 2 3 ) }
L:1/8
Q:1/4=100
M:2/4
K:G
V:1 treble nm="Piano" snm="Pno."
V:2 bass 
V:3 bass 
V:1
"^Allegretto vivace"!mf! z4 | z2 z3/2 d/ | !>!g>de>d | !>!g>de>d | d/e/d/B/ G/!>!EG/ | D3 z | %6
 E/GE/ D2 | E/GE/ D/G/F/G/ | A/B/A/^G/ Ae | d2 !>![dd']>d | !>!g>de>d | !>!g>de>d | %12
 d/e/d/B/ G/!>!EG/ | D3 z | e/!>!ge/ d2 | E/!>!GE/ DG/A/ | B/dB/ GA | G2 !arpeggio![GBg]2 || %18
!p!!8va(! d'/g'd'/ e'/d'/b/a/ | gab!8va)! z |!f! [dgd'] [dgd']2 [ege'] | [dgd']2 z2 | %22
!p!!8va(! d'/g'd'/ e'/d'/b/a/ | gab!8va)! z |!f! [A^ca] [Aca]2 [Bb] | [Aa]2 !^![dfd']2 | %26
!8va(! d'/g'd'/ e'/d'/b/a/ | gab!8va)! z | [dgd'] [dgd']2 [ege'] | [dgd']2 z!8va(! d' | %30
 g'>e' d'!8va)!z/d/ | g>ed G,/A,/ | B,/DB,/ G,A, | G,2 z2 || %34
[K:C]!p!"^melodie marcato"[I:staff +1] G,[I:staff -1][CE][I:staff +1] A,[I:staff -1][CE] | %35
[I:staff +1] B,[I:staff -1][CE][I:staff +1] =A,[I:staff -1][CE] | %36
[I:staff +1] G,[I:staff -1][CE][I:staff +1]{/^G,} =A,[I:staff -1][CE] | %37
[I:staff +1] A,[I:staff -1][B,DF] !>![DF]2 |!f! z !>![fbf']2 [fbf'] | %39
 z [eae']/[^da^d']/ [eae'][eac'] | z !>![^fb=d']2 [fad'] | z{/^f} g{/^f'}!>!g' z | %42
[I:staff +1] G,[I:staff -1][CE][I:staff +1] A,[I:staff -1][CE] | %43
[I:staff +1] B,[I:staff -1][CE][I:staff +1] =A,[I:staff -1][CE] | %44
[I:staff +1] G,[I:staff -1][CE][I:staff +1]{/^G,} =A,[I:staff -1]!>![^CE] | %45
[I:staff +1] !>!F,[I:staff -1]FF z | z [Aa][Bb][Aa] | z [cc']!>!c>d | e[Ge]/g/ d[Gd]/g/ | %49
 !>!c z !>![cc'] z ||{/^d} !^![Ee]2{/d} !^![Ee]2 |{/^d} !^![Ee]2 =d/e/f/d/ | ea/b/ c'/b/a/c'/ | %53
 b/a/^g/b/ a[^C^c] | !^![Dd]2 !^![Dd]2 |!f! g/^f/g/a/ bg/d/ | e/^f/g/a/ b/g/a/f/ | g2 z (3^f/g/a/ | %58
 g2 z (3^f/g/a/ | g2 z (3^f/g/a/ |"_rit." g[Q:1/4=93][G,B,][Q:1/4=86][G,C][Q:1/4=79][G,^C] | %61
[Q:1/4=71]!<(! [G,D][Q:1/4=64]!>![G,G][Q:1/4=57]!>![G,G][Q:1/4=50]!>![G,G]!<)! | %62
[Q:1/4=100]"^a tempo"[I:staff +1] G,[I:staff -1][CE][I:staff +1] A,[I:staff -1][CE] | %63
[I:staff +1] B,[I:staff -1][CE][I:staff +1] =A,[I:staff -1][CE] | %64
[I:staff +1] G,[I:staff -1][CE][I:staff +1]{/^G,} =A,[I:staff -1][CE] | %65
[I:staff +1] A,[I:staff -1][B,DF] !>![DF]2 | z !>![fbf']2 [fbf'] | %67
 z [eae']/[^da^d']/ [eae'][eac'] | z [^fb=d']2 [fad'] | z{/^f} gg' z | %70
[I:staff +1] G,[I:staff -1][CE][I:staff +1] A,[I:staff -1][CE] | %71
[I:staff +1] B,[I:staff -1][CE][I:staff +1] =A,[I:staff -1][CE] | %72
[I:staff +1] G,[I:staff -1][CE][I:staff +1]{/^G,} =A,[I:staff -1][^CE] | %73
[I:staff +1] !>!F,[I:staff -1]FF z | z [Aa][Bb][Aa] | z [cc']c>d | ee/g/ d[Gd]/g/ | c z [cc'] z || %78
[K:G] z4 | z2 z3/2 d/ | !>!g>de>d | !>!g>de>d | d/e/d/B/ G/EG/ | D3 z | E/GE/ D2 | E/GE/ D/G/F/G/ | %86
 A/B/A/^G/ Ae | d2 [dd']>d | !>!g>de>d | !>!g>de>d | d/e/d/B/ G/EG/ | D3 z | e/!^!ge/ d2 | %93
 E/!>!GE/ DG/A/ | B/!>!dB/ GA | G2 !arpeggio![GBg]2 ||!8va(! d'/g'd'/ e'/d'/b/a/ | %97
 !>!g!>!a!>!b!8va)! z |!f! [dgd'] [dgd']2 [ege'] | [dgd']2 z2 |!p!!8va(! d'/!>!g'd'/ e'/d'/b/a/ | %101
 !>!g!>!a!>!b!8va)! z |!f! [A^ca] [Aca]2 [Bb] | [Aa]2 [dfd']2 |!p!!8va(! d'/g'd'/ e'/d'/b/a/ | %105
 gab!8va)! z |!f! [dgd'] [dgd']2 [ege'] | [dgd']2 z!8va(! d' | g'>e' d'!8va)!z/d/ | g>ed G,/A,/ | %110
 B,/DB,/ G,A, | G, z g>a | b/d'b/ ga | g2 g'2 |] %114
V:2
 !^!G,[B,DG] !^!E,[B,EG] | !^!G,[B,DG] !^!D,[B,EG] | G,[B,DG] E,[B,EG] | G,[B,DG] E,[B,EG] | %4
 G,[B,DG] C,[E,G,C] | G,,[D,G,B,][D,G,B,] z | C,[E,G,C] B,,[D,G,B,] | C,[E,G,C] B,,[D,G,B,] | %8
 A,,[A,^CG][A,CG] z | D,2 !>![CDF]2 | G,[B,DG] E,[B,EG] | G,[B,DG] E,[B,EG] | G,[B,DG] C,[E,G,C] | %13
 G,,[D,G,B,][D,G,B,] z | E/!>!GE/ D2 | E,/!>!G,E,/ D, z | D,[B,DG] D,[CDF] | %17
 G,2 !arpeggio![G,,D,B,]2 || G,[B,DG] D,[B,DG] | G,A,B, z |[K:treble] [GB] [GB]2 [Gc] | [GB]2 z2 | %22
[K:bass] G,[B,DG] D,[B,DG] | G,A,B, z |[K:treble] [A,^CG] [A,CG]2 [A,CG] | [DF]2 [DFA]2 | %26
[K:bass] G,[B,DG] D,[B,DG] | G,A,B, z |[K:treble] [GB] [GB]2 [Gc] | [GB]2 z d | g>e dz/D/ | %31
 G>ED z |[K:bass] D,,[K:treble][GB] z [Fc] |[K:bass] G,,[K:treble][DGB][DGB] z || %34
[K:C][K:bass] [C,,C,]2 G,,2 | [C,,C,]2 G,,2 | [C,,C,]2 G,,2 | [D,,D,]2 [G,,G,]2 | %38
 G,,[K:treble] [GBd]2 [^GBd] | A, [Ac]/[Ac]/ [Ac][Ac] |[K:bass] D,[K:treble] [D^FB]2 [DFA] | %41
[K:bass] G,2 G,, z | [C,,C,]2 G,,2 | [C,,C,]2 G,,2 | [C,,C,]2 A,,2 | [D,,D,]2 z2 | %46
 [^F,,^F,][^D^F][DF][DF] | !>![G,,G,][CE][_A,C_E] z | G,,[G,C=E] D,[G,B,F] | [CE] z C,, z || %50
 A,,[E,A,C] B,,[E,^G,B,] | C,[E,A,C] D,[A,DF] | E,E [A,C]E | E,[^G,B,E] [A,CE] z | %54
 [D,,D,][E,,E,][^F,,^F,][D,,D,] | G,[DG] B,[DG] |[K:treble] [CEG][^CE_B][DG=B][D^Fc] | GDG, z | %58
 z [D=F]G, z | z [CE]G, z |[K:bass] G,,[D,F,]C,^A,, | B,,G,,B,,, z |!ff! [C,,C,]2 G,,2 | %63
 [C,,C,]2 G,,2 | [C,,C,]2 G,,2 | [D,,D,]2 [G,,G,]2 | G,,[K:treble] !^![GBd]2 [^GBd] | %67
 A, [Ac]/[Ac]/ [Ac][Ac] |[K:bass] D,[K:treble] [D^FB]2 [DFA] |[K:bass] G,2 G,, z | [C,,C,]2 G,,2 | %71
 [C,,C,]2 G,,2 | [C,,C,]2 A,,2 | [D,,D,]2 z2 | [^F,,^F,][^D^F][DF][DF] | !>![G,,G,][CE][_A,C_E] z | %76
 G,,[G,CE] D,[G,B,F] | [CE] z C,, z ||[K:G] !^!G,[B,DG] !^!E,[B,EG] | !^!G,[B,DG] !^!D,[B,EG] | %80
 G,[B,DG] E,[B,EG] | G,[B,DG] E,[B,EG] | G,[B,DG] C,[E,G,C] | G,,[D,G,B,][D,G,B,] z | %84
 C,[E,G,C] B,,[D,G,B,] | C,[E,G,C] B,,[D,G,B,] | A,,[A,^CG][A,CG] z | D,2 [CDF]2 | %88
 G,[B,DG] E,[B,EG] | G,[B,DG] E,[B,EG] | G,[B,DG] C,[E,G,C] | G,,[D,G,B,][D,G,B,] z | E/!^!GE/ D2 | %93
 E,/!>!G,E,/ D, z | D,[B,DG] D,[CDF] | G,2 !arpeggio![G,,D,B,]2 || G,[B,DG] D,[B,DG] | %97
 !>!G,!>!A,!>!B, z |[K:treble] [GB] [GB]2 [Gc] | [GB]2 z2 |[K:bass] G,[B,DG] D,[B,DG] | G,A,B, z | %102
[K:treble] [A,^CG] [A,CG]2 [A,CG] | [DF]2 [DFA]2 |[K:bass] G,[B,DG] D,[B,DG] | G,A,B, z | %106
[K:treble] [GB] [GB]2 [Gc] | [GB]2 z d | g>e dz/D/ | G>ED z |[K:bass] D,,[K:treble][GB] z [Fc] | %111
[K:bass] G,,[K:treble][DGB][DGB][_EG_B] |[K:bass] [D,,D,][B,DG] [D,,D,][CDFA] | %113
 !arpeggio![G,,D,B,]2 G,,,2 |] %114
V:3
 x4 | x4 | x4 | x4 | x4 | x4 | x4 | x4 | x4 | x4 | x4 | x4 | x4 | x4 | x4 | x4 | x4 | x4 || x4 | %19
 x4 |[K:treble] x4 | x4 |[K:bass] x4 | x4 |[K:treble] x4 | x4 |[K:bass] x4 | x4 |[K:treble] x4 | %29
 x4 | x4 | x4 |[K:bass] x[K:treble] x3 |[K:bass] x[K:treble] x3 ||[K:C][K:bass] x- G,{/^G,} x- A, | %35
{/^A,} x- B,{/_B,} x- A, |{/_A,} x- G, x B, | x- A, !>!B,2 | x[K:treble] x3 | x4 | %40
[K:bass] x[K:treble] x3 |[K:bass] x4 | x- G,{/^G,} x- A, |{/^A,} x- B,{/_B,} x- A, | %44
{/_A,} x- G, x E, | !>!x- [F,A,]A, x | x4 | x4 | x4 | x4 || x4 | x4 | x4 | x4 | x4 | x4 | %56
[K:treble] x4 | x4 | x4 | x4 |[K:bass] x4 | x4 | x- G,{/^G,} x- A, |{/^A,} x- B,{/_B,} x- A, | %64
{/_A,} x- G, x B, | x- A, !>!B,2 | x[K:treble] x3 | x4 |[K:bass] x[K:treble] x3 |[K:bass] x4 | %70
 x- G,{/^G,} x- A, |{/^A,} x- B,{/_B,} x- A, |{/_A,} x- G, x E, | !>!x- [F,A,]A, x | x4 | x4 | x4 | %77
 x4 ||[K:G] x4 | x4 | x4 | x4 | x4 | x4 | x4 | x4 | x4 | x4 | x4 | x4 | x4 | x4 | x4 | x4 | x4 | %95
 x4 || x4 | x4 |[K:treble] x4 | x4 |[K:bass] x4 | x4 |[K:treble] x4 | x4 |[K:bass] x4 | x4 | %106
[K:treble] x4 | x4 | x4 | x4 |[K:bass] x[K:treble] x3 |[K:bass] x[K:treble] x3 |[K:bass] x4 | x4 |] %114

